!!!OTL: Renren doushuo hongjunhao
!!!ARE: Asia, China,ÿGuizhou Zunyi
!! II, 150, 2)
!!!SCT: C1873
!!!YEM: Copyright 1995, estate of Helmut Schaffrath.
**kern
*ICvox
*Ivox
*M2/4
*k[]
*C:
{8dd
8a
8cc
16a
16cc
=1
8dd
8a
8a
8cc
=2
4dd
4dd}
=3
{4cc
4a
=4
4g
8g
8a
=5
4cc
4a}
=6
{8dd
8dd
16cc
16a
16a
16dd
=7
8cc
16dd
16cc
4a
=8
8g
16g
16a
4cc}
=9
{8a
8cc
8cc
8a
=10
4g
8g
8cc
=11
4a
4a
=12
4g
4g}
==
!!!AGN: Xiaodiao, Huadeng diao
!!!AMT: simple duple
!!!AIN: vox
!!!EED: Helmut Schaffrath
!!!EEV: 1.0
*-
